icons/svg/currency-rub.svg

﻿<?xml version="1.0" encoding="utf-8"?>
<!DOCTYPE svg PUBLIC "-//W3C//DTD SVG 1.1//EN" "http://www.w3.org/Graphics/SVG/1.1/DTD/svg11.dtd">
<svg xmlns="http://www.w3.org/2000/svg" xmlns:xlink="http://www.w3.org/1999/xlink" version="1.1" baseProfile="full" width="24" height="24" viewBox="0 0 24.00 24.00" enable-background="new 0 0 24.00 24.00" xml:space="preserve">
	<path fill="#000000" fill-opacity="1" stroke-linejoin="round" d="M 6,10L 7,10L 7,3L 14.5,3C 16.9853,3 19,5.01472 19,7.5C 19,9.98528 16.9853,12 14.5,12L 9,12L 9,14L 15,14L 15,16L 9,16L 9,21L 7,21L 7,16L 6,16L 6,14L 7,14L 7,12L 6,12L 6,10 Z M 14.5,5L 9,5L 9,10L 14.5,10C 15.8807,10 17,8.88072 17,7.50001C 17,6.1193 15.8807,5 14.5,5 Z "/>
</svg>

<svg xmlns="http://www.w3.org/2000/svg" version="1.1" baseProfile="full" width="24" height="24" viewBox="0 0 24.00 24.00" xml:space="preserve"><path fill="#000" fill-opacity="1" stroke-linejoin="round" d="M6 10h1V3h7.5C16.985 3 19 5.015 19 7.5S16.985 12 14.5 12H9v2h6v2H9v5H7v-5H6v-2h1v-2H6v-2zm8.5-5H9v5h5.5c1.38 0 2.5-1.12 2.5-2.5S15.88 5 14.5 5z"/></svg>
